symbols/web/policy/materialsymbolsoutlined/policy_wght700_20px.svg

<svg xmlns="http://www.w3.org/2000/svg" height="20" width="20"><path d="M10.021 11.333q.541 0 .927-.395.385-.396.385-.938 0-.542-.385-.938-.386-.395-.927-.395-.563 0-.959.395-.395.396-.395.938 0 .562.395.948.396.385.959.385ZM10 16.271q.812-.313 1.51-.823t1.261-1.198l-1.209-1.208q-.354.187-.739.27-.385.084-.802.084-1.417 0-2.417-.99-1-.989-1-2.406 0-1.417 1-2.406 1-.99 2.417-.99 1.417 0 2.396.99.979.989.979 2.406 0 .417-.084.833-.083.417-.27.75l.854.917q.396-.792.583-1.562.188-.771.188-1.667V5.542L10 3.833 5.333 5.542v3.729q0 2.375 1.334 4.291Q8 15.479 10 16.271Zm0 2.791q-3.208-.77-5.292-3.572-2.083-2.802-2.083-6.219V3.667L10 .938l7.375 2.729v5.604q0 3.417-2.083 6.219-2.084 2.802-5.292 3.572Zm.625-8.979Z"/></svg>

<svg xmlns="http://www.w3.org/2000/svg" height="20" width="20"><path d="M10.021 11.333Q10.562 11.333 10.948 10.938Q11.333 10.542 11.333 10Q11.333 9.458 10.948 9.062Q10.562 8.667 10.021 8.667Q9.458 8.667 9.062 9.062Q8.667 9.458 8.667 10Q8.667 10.562 9.062 10.948Q9.458 11.333 10.021 11.333ZM10 16.271Q10.812 15.958 11.51 15.448Q12.208 14.938 12.771 14.25L11.562 13.042Q11.208 13.229 10.823 13.312Q10.438 13.396 10.021 13.396Q8.604 13.396 7.604 12.406Q6.604 11.417 6.604 10Q6.604 8.583 7.604 7.594Q8.604 6.604 10.021 6.604Q11.438 6.604 12.417 7.594Q13.396 8.583 13.396 10Q13.396 10.417 13.312 10.833Q13.229 11.25 13.042 11.583L13.896 12.5Q14.292 11.708 14.479 10.938Q14.667 10.167 14.667 9.271V5.542L10 3.833L5.333 5.542V9.271Q5.333 11.646 6.667 13.562Q8 15.479 10 16.271ZM10 19.062Q6.792 18.292 4.708 15.49Q2.625 12.688 2.625 9.271V3.667L10 0.938L17.375 3.667V9.271Q17.375 12.688 15.292 15.49Q13.208 18.292 10 19.062ZM10.625 10.083Q10.625 10.083 10.625 10.083Q10.625 10.083 10.625 10.083Q10.625 10.083 10.625 10.083Q10.625 10.083 10.625 10.083Q10.625 10.083 10.625 10.083Q10.625 10.083 10.625 10.083Q10.625 10.083 10.625 10.083Q10.625 10.083 10.625 10.083Z"/></svg>
